X:49
T:Battle at Trafalgar,The. JGi.049
M:6/8
L:1/8
Q:3/8=120
S:Joshua Gibbons MS,1823,Tealby,Lincs.
R:jig
O:Tealby,Lincolnshire
Z:VMP/R.Greig, 2009
K:G
d2|g/a/ bg afe|d2BG2A|BcB BAG|D2DD2d|
g/a/ bg gfe|d3G2A|B>cB AGA|G2GG2:|
|:b|c’2ab2g|gfg afd|c’2ab2g|gfga2b|
c’2a b2g|gfg afd|ded dgb|G2GG2:|

